X:1
T:The Lady On The Island
R:reel
M:4/4
L:1/8
K:D
dA|BAFB AFEF|D2FA BAdB|BAFB ~A2AB|defd efdB|
|BAFB AFEF|D2FA BAdB|BAFB ~A2AB|defd edBc|
|~d2fd efge|afdf edBc|~d2fd efge|afdf edef|
|~d2fd efge|afdf edBc|defg afbf|afdf efdB|